svg/fluentui-system-icons/ic_fluent_map_drive_24_filled.svg

<svg width="24" height="24" viewBox="0 0 24 24" fill="none" xmlns="http://www.w3.org/2000/svg">
<path d="M2 5.25C2 4.00736 3.00736 3 4.25 3H19.75C20.9926 3 22 4.00736 22 5.25V10.25C22 10.6642 21.6642 11 21.25 11H12.75V13.001H13.7494C14.1637 13.001 14.4994 13.3368 14.4994 13.751V16.0045H16.2491C16.6633 16.0045 16.9991 16.3403 16.9991 16.7545V17.5H21.25C21.6642 17.5 22 17.8358 22 18.25C22 18.6642 21.6642 19 21.25 19H16.9991V20.2534C16.9991 20.6676 16.6633 21.0034 16.2491 21.0034H7.75098C7.33676 21.0034 7.00098 20.6676 7.00098 20.2534V19H2.75C2.33579 19 2 18.6642 2 18.25C2 17.8358 2.33579 17.5 2.75 17.5H7.00098V16.7545C7.00098 16.3403 7.33676 16.0045 7.75098 16.0045H9.50061V13.751C9.50061 13.3368 9.8364 13.001 10.2506 13.001H11.25V11H2.75C2.33579 11 2 10.6642 2 10.25V5.25ZM17.9977 8.00228C18.5512 8.00228 19 7.55353 19 6.99998C19 6.44642 18.5512 5.99768 17.9977 5.99768C17.4441 5.99768 16.9954 6.44642 16.9954 6.99998C16.9954 7.55353 17.4441 8.00228 17.9977 8.00228Z" fill="#212121"/>
</svg>

<svg xmlns="http://www.w3.org/2000/svg" width="24" height="24"><path d="M2 5.25A2.25 2.25 0 0 1 4.25 3h15.5A2.25 2.25 0 0 1 22 5.25v5a.75.75 0 0 1-.75.75h-8.5v2.001h1a.75.75 0 0 1 .75.75v2.254h1.75a.75.75 0 0 1 .75.75v.745h4.25a.75.75 0 0 1 0 1.5H17v1.253a.75.75 0 0 1-.75.75h-8.5a.75.75 0 0 1-.75-.75V19H2.75a.75.75 0 0 1 0-1.5h4.251v-.745a.75.75 0 0 1 .75-.75h1.75V13.75a.75.75 0 0 1 .75-.75h.999v-2h-8.5a.75.75 0 0 1-.75-.75v-5Zm15.998 2.752a1.002 1.002 0 1 0 0-2.004 1.002 1.002 0 0 0 0 2.004Z"/></svg>
